src/components/Layout/Navbar/images/logo.svg

<svg width="192" height="236" viewBox="0 0 192 236" fill="none" xmlns="http://www.w3.org/2000/svg">
<path d="M30.232 130.24L27.88 120.88H16.408L13.864 130L7.72 129.52L11.944 117.856L18.376 97.216L26.968 96.592L33.16 117.136L37.144 129.184L30.232 130.24ZM22.648 102.832H22.024L17.896 115.792H26.44L22.648 102.832ZM59.9237 115.024H60.4038L67.4118 96.784L74.0358 96.976L74.2278 117.616L75.1398 130H68.6598L68.8998 117.52L68.3717 104.896L62.6118 120.784L56.7077 121.072L51.3318 104.896L50.8998 117.52L51.2358 130H45.2837L45.9557 118.336L46.2437 97.744L53.8758 96.544L59.9237 115.024ZM100.103 115.024H100.583L107.591 96.784L114.215 96.976L114.407 117.616L115.319 130H108.839L109.079 117.52L108.551 104.896L102.791 120.784L96.8871 121.072L91.5111 104.896L91.0791 117.52L91.4151 130H85.4631L86.1351 118.336L86.4231 97.744L94.0551 96.544L100.103 115.024ZM145.755 130.24L143.403 120.88H131.93L129.386 130L123.242 129.52L127.466 117.856L133.898 97.216L142.49 96.592L148.682 117.136L152.667 129.184L145.755 130.24ZM138.17 102.832H137.547L133.418 115.792H141.963L138.17 102.832ZM170.118 117.232H167.382V117.52L167.958 130H161.526L162.102 118.336L161.526 96.88H171.942C175.014 96.88 177.462 97.712 179.286 99.376C181.11 101.04 182.022 103.248 182.022 106C182.022 108.08 181.478 109.984 180.39 111.712C179.334 113.408 177.894 114.752 176.07 115.744L184.422 127.552L178.614 130.528L171.126 117.184C170.902 117.216 170.566 117.232 170.118 117.232ZM170.214 101.728H167.862L167.526 112.576H170.79C172.39 112.576 173.622 112.048 174.486 110.992C175.382 109.936 175.83 108.432 175.83 106.48C175.83 103.312 173.958 101.728 170.214 101.728Z" fill="black"/>
<path d="M27.36 207.056C22.816 207.056 16.256 206.704 7.68 206L8.832 182.672L7.68 139.76H33.312C41.952 139.76 48.704 142.352 53.568 147.536C58.432 152.72 60.864 159.92 60.864 169.136C60.864 180.784 57.856 190.032 51.84 196.88C45.824 203.664 37.664 207.056 27.36 207.056ZM29.856 150.128C25.632 150.128 22.656 150.16 20.928 150.224L19.968 181.04L20.64 196.592C26.016 196.976 29.632 197.168 31.488 197.168C36.544 197.168 40.512 195.12 43.392 191.024C46.336 186.928 47.808 180.976 47.808 173.168C47.808 165.36 46.368 159.568 43.488 155.792C40.672 152.016 36.128 150.128 29.856 150.128ZM110.214 206.48L105.51 187.76H82.566L77.478 206L65.19 205.04L73.638 181.712L86.502 140.432L103.686 139.184L116.07 180.272L124.038 204.368L110.214 206.48ZM95.046 151.664H93.798L85.542 177.584H102.63L95.046 151.664ZM183.902 139.568L182.654 181.04L183.71 203.888L172.382 206.288L143.774 160.016V181.04L145.118 206H133.118L134.27 182.672L133.118 140.048L144.638 139.472L173.15 186.416L172.19 141.008L183.902 139.568Z" fill="black"/>
<path d="M96 0L106.328 29.0213H139.749L112.71 46.9574L123.038 75.9787L96 58.0426L68.9619 75.9787L79.2895 46.9574L52.2514 29.0213H85.6724L96 0Z" fill="#020202"/>
</svg>

<?xml version="1.0" encoding="UTF-8"?>
<svg viewBox="0 0 192 236" xmlns="http://www.w3.org/2000/svg">
<path d="m30.232 130.24-2.352-9.36h-11.472l-2.544 9.12-6.144-0.48 4.224-11.664 6.432-20.64 8.592-0.624 6.192 20.544 3.984 12.048-6.912 1.056zm-7.584-27.408h-0.624l-4.128 12.96h8.544l-3.792-12.96zm37.276 12.192h0.4801l7.008-18.24 6.624 0.192 0.192 20.64 0.912 12.384h-6.48l0.24-12.48-0.5281-12.624-5.7599 15.888-5.9041 0.288-5.3759-16.176-0.432 12.624 0.336 12.48h-5.9521l0.672-11.664 0.288-20.592 7.6321-1.2 6.0479 18.48zm40.179 0h0.48l7.008-18.24 6.624 0.192 0.192 20.64 0.912 12.384h-6.48l0.24-12.48-0.528-12.624-5.76 15.888-5.9039 0.288-5.376-16.176-0.432 12.624 0.336 12.48h-5.952l0.672-11.664 0.288-20.592 7.632-1.2 6.0479 18.48zm45.652 15.216-2.352-9.36h-11.473l-2.544 9.12-6.144-0.48 4.224-11.664 6.432-20.64 8.592-0.624 6.192 20.544 3.985 12.048-6.912 1.056zm-7.585-27.408h-0.623l-4.129 12.96h8.545l-3.793-12.96zm31.948 14.4h-2.736v0.288l0.576 12.48h-6.432l0.576-11.664-0.576-21.456h10.416c3.072 0 5.52 0.832 7.344 2.496s2.736 3.872 2.736 6.624c0 2.08-0.544 3.984-1.632 5.712-1.056 1.696-2.496 3.04-4.32 4.032l8.352 11.808-5.808 2.976-7.488-13.344c-0.224 0.032-0.56 0.048-1.008 0.048zm0.096-15.504h-2.352l-0.336 10.848h3.264c1.6 0 2.832-0.528 3.696-1.584 0.896-1.056 1.344-2.56 1.344-4.512 0-3.168-1.872-4.752-5.616-4.752z"/>
<path d="m27.36 207.06c-4.544 0-11.104-0.352-19.68-1.056l1.152-23.328-1.152-42.912h25.632c8.64 0 15.392 2.592 20.256 7.776s7.296 12.384 7.296 21.6c0 11.648-3.008 20.896-9.024 27.744-6.016 6.784-14.176 10.176-24.48 10.176zm2.496-56.928c-4.224 0-7.2 0.032-8.928 0.096l-0.96 30.816 0.672 15.552c5.376 0.384 8.992 0.576 10.848 0.576 5.056 0 9.024-2.048 11.904-6.144 2.944-4.096 4.416-10.048 4.416-17.856s-1.44-13.6-4.32-17.376c-2.816-3.776-7.36-5.664-13.632-5.664zm80.358 56.352-4.704-18.72h-22.944l-5.088 18.24-12.288-0.96 8.448-23.328 12.864-41.28 17.184-1.248 12.384 41.088 7.968 24.096-13.824 2.112zm-15.168-54.816h-1.248l-8.256 25.92h17.088l-7.584-25.92zm88.856-12.096-1.248 41.472 1.056 22.848-11.328 2.4-28.608-46.272v21.024l1.344 24.96h-12l1.152-23.328-1.152-42.624 11.52-0.576 28.512 46.944-0.96-45.408 11.712-1.44z"/>
<path d="m96 0 10.328 29.021h33.421l-27.039 17.936 10.328 29.021-27.038-17.936-27.038 17.936 10.328-29.021-27.038-17.936h33.421l10.328-29.021z" fill="#020202"/>
</svg>
